X: 30397
T: Old Schoolmaster, The
R: reel
M: 4/4
K: Gmajor
|:~G3 A (3Bcd ed|c~A3 cAAG|E~G3 (3Bcd e|1 agec edecA:|2 agec d2cd||
|:egge ged2|eaag a3g|egge gg eg|agec de cd|
egge ged2|eaag a3g|gede cdea|gece de cd:|

